resources/svg/cursor-line.svg

<svg fill="currentColor" viewBox="0 0 24 24" xmlns="http://www.w3.org/2000/svg"><path d="M15.3873 13.4977L17.9403 20.5118L13.2418 22.2219L10.6889 15.2078L6.79004 17.653L8.4086 1.6333L19.9457 12.8647L15.3873 13.4977ZM15.3768 19.3165L12.6618 11.8569L15.6212 11.446L9.98201 5.95622L9.19088 13.7864L11.7221 12.1989L14.4371 19.6585L15.3768 19.3165Z"/></svg>

<svg xmlns="http://www.w3.org/2000/svg" viewBox="0 0 24 24" fill="currentColor">
    <g>
        <path fill="none" d="M0 0h24v24H0z"/>
        <path fill-rule="nonzero" d="M15.388 13.498l2.552 7.014-4.698 1.71-2.553-7.014-3.899 2.445L8.41 1.633l11.537 11.232-4.558.633zm-.011 5.818l-2.715-7.46 2.96-.41-5.64-5.49-.79 7.83 2.53-1.587 2.715 7.46.94-.343z"/>
    </g>
</svg>
